X:831
T:Xiraldilla (CT 253)
R:Xiraldilla
C:Tradicional
S:Msica Tradicional Asturiana, (C) Tello & Tito. Asturies, 2001.
S:http://pagina.de/MusTradAst <telloytito@asturies.org>
N:Xiraldilla, dictada por Andrs Llabona Llabona, de veinticuatro aos, de Torazo, ayuntamiento de Cabranes.
A:Asturies
O:Torazo (Cabranes)
Z:Cancioneru de Torner 253
M:2/4
L:1/8
Q:1/4=160
K:G
|: AA AG|FF FG|AB cB|A2 G2 :|
|: G2 B2|d3 d|c2 A2|F2 F2|F2 A2|c3 c|B2 A2|G2 z2 :|
|: AA AG|FF FG|AB cB|A2 G2 :||
W:Ole! riberina, riberina, riberana
W:Ole! riberina, madruga por la maana.
W:Madruga por la maana
W:a regalar el tu amor,
W:riberina, resalada,
W:rpenda del mi corazn.
W:Ole! riberina, riberina, riberana,
W:ole! riberna, madruga por la maana.
W:
